X:11
T:Hewlett
Z: id:dc-ocarolan-17
M:3/4
L:1/8
K:D Major
AF|D2 DE FG|AB c2 A2|d2 f2 fg|fe d2 dB|!
A2 F2 FA|G3 A BG|AF D2 DE|D4:|!
AB|A2 D2 AB|A2 D2 AB|A2 d3 e|dc BA GF|!
G2 GF GA|G2 GF GA|G3 A BG|AF D3 E|!
FE F2 G2|AB c2 A2|d2 f2 fg|fe d2 dB|!
A2 F2 FA|G3 A BG|AF D2 DE|D4:|!